icons/repo-template-24.svg

<svg width="24" height="24" viewBox="0 0 24 24" fill="none" xmlns="http://www.w3.org/2000/svg">
<path d="M5.75 0C4.23122 0 3 1.23122 3 2.75V3.75C3 4.16421 3.33579 4.5 3.75 4.5C4.16421 4.5 4.5 4.16421 4.5 3.75V2.75C4.5 2.05964 5.05995 1.5 5.7503 1.5H6.75C7.16421 1.5 7.5 1.16421 7.5 0.75C7.5 0.335786 7.16421 0 6.75 0H5.75Z" fill="#24292E"/>
<path d="M9.75 0C9.33579 0 9 0.335786 9 0.75C9 1.16421 9.33579 1.5 9.75 1.5H14.25C14.6642 1.5 15 1.16421 15 0.75C15 0.335786 14.6642 0 14.25 0H9.75Z" fill="#24292E"/>
<path d="M17.25 0C16.8358 0 16.5 0.335786 16.5 0.75C16.5 1.16421 16.8358 1.5 17.25 1.5H19.5V3.75C19.5 4.16421 19.8358 4.5 20.25 4.5C20.6642 4.5 21 4.16421 21 3.75V0.75C21 0.335786 20.6642 0 20.25 0H17.25Z" fill="#24292E"/>
<path d="M4.5 6.5C4.5 6.08579 4.16421 5.75 3.75 5.75C3.33579 5.75 3 6.08579 3 6.5V10.25C3 10.6642 3.33579 11 3.75 11C4.16421 11 4.5 10.6642 4.5 10.25V6.5Z" fill="#24292E"/>
<path d="M21 6.5C21 6.08579 20.6642 5.75 20.25 5.75C19.8358 5.75 19.5 6.08579 19.5 6.5V10.25C19.5 10.6642 19.8358 11 20.25 11C20.6642 11 21 10.6642 21 10.25V6.5Z" fill="#24292E"/>
<path d="M4.5 13.25C4.5 12.8358 4.16421 12.5 3.75 12.5C3.33579 12.5 3 12.8358 3 13.25V18.75C3 20.0839 3.80345 21.2284 4.94972 21.7292C5.32929 21.8951 5.77143 21.7218 5.93726 21.3423C6.1031 20.9627 5.92984 20.5206 5.55028 20.3547C4.93064 20.084 4.5 19.4664 4.5 18.75V18C4.5 17.1716 5.17157 16.5 6 16.5H6.75C7.16421 16.5 7.5 16.1642 7.5 15.75C7.5 15.3358 7.16421 15 6.75 15H6C5.45357 15 4.94126 15.1461 4.5 15.4013V13.25Z" fill="#24292E"/>
<path d="M21 13.25C21 12.8358 20.6642 12.5 20.25 12.5C19.8358 12.5 19.5 12.8358 19.5 13.25V15H17.25C16.8358 15 16.5 15.3358 16.5 15.75C16.5 16.1642 16.8358 16.5 17.25 16.5H19.5V20.5H14.25C13.8358 20.5 13.5 20.8358 13.5 21.25C13.5 21.6642 13.8358 22 14.25 22H20.25C20.6642 22 21 21.6642 21 21.25V13.25Z" fill="#24292E"/>
<path d="M9.75 15C9.33579 15 9 15.3358 9 15.75C9 16.1642 9.33579 16.5 9.75 16.5H14.25C14.6642 16.5 15 16.1642 15 15.75C15 15.3358 14.6642 15 14.25 15H9.75Z" fill="#24292E"/>
<path d="M7.39704 23.4612C7.2318 23.5814 7 23.4634 7 23.2591V18.25C7 18.1119 7.11193 18 7.25 18H12.25C12.3881 18 12.5 18.1119 12.5 18.25V23.2591C12.5 23.4634 12.2682 23.5814 12.103 23.4612L9.89704 21.8569C9.80938 21.7932 9.69062 21.7932 9.60296 21.8569L7.39704 23.4612Z" fill="#24292E"/>
</svg>

<svg xmlns="http://www.w3.org/2000/svg" width="24" height="24" viewBox="0 0 24 24"><path d="M5.75 0A2.75 2.75 0 003 2.75v1a.75.75 0 001.5 0v-1c0-.69.56-1.25 1.25-1.25h1a.75.75 0 000-1.5h-1zm4 0a.75.75 0 000 1.5h4.5a.75.75 0 000-1.5h-4.5zm7.5 0a.75.75 0 000 1.5h2.25v2.25a.75.75 0 001.5 0v-3a.75.75 0 00-.75-.75h-3zM4.5 6.5a.75.75 0 00-1.5 0v3.75a.75.75 0 001.5 0V6.5zm16.5 0a.75.75 0 00-1.5 0v3.75a.75.75 0 001.5 0V6.5zM4.5 13.25a.75.75 0 00-1.5 0v5.5a3.25 3.25 0 001.95 2.98.75.75 0 10.6-1.375A1.75 1.75 0 014.5 18.75V18A1.5 1.5 0 016 16.5h.75a.75.75 0 000-1.5H6c-.546 0-1.059.146-1.5.401V13.25zm16.5 0a.75.75 0 00-1.5 0V15h-2.25a.75.75 0 000 1.5h2.25v4h-5.25a.75.75 0 000 1.5h6a.75.75 0 00.75-.75v-8zM9.75 15a.75.75 0 000 1.5h4.5a.75.75 0 000-1.5h-4.5zm-2.353 8.461A.25.25 0 017 23.26v-5.01a.25.25 0 01.25-.25h5a.25.25 0 01.25.25v5.01a.25.25 0 01-.397.201l-2.206-1.604a.25.25 0 00-.294 0L7.397 23.46z"/></svg>
